img/icones/redes/youtube.svg

<svg width="32" height="32" viewBox="0 0 32 32" fill="none" xmlns="http://www.w3.org/2000/svg">
<path d="M31.3307 8.2479C31.1499 7.56693 30.7934 6.94541 30.2968 6.44558C29.8003 5.94575 29.1811 5.58515 28.5013 5.3999C26.0067 4.72656 16 4.72656 16 4.72656C16 4.72656 5.99333 4.72656 3.49733 5.3999C2.81788 5.58548 2.19906 5.94621 1.70277 6.446C1.20648 6.9458 0.850122 7.56715 0.669333 8.2479C0 10.7599 0 15.9999 0 15.9999C0 15.9999 0 21.2399 0.669333 23.7519C0.850115 24.4329 1.20663 25.0544 1.70319 25.5542C2.19974 26.054 2.8189 26.4146 3.49867 26.5999C5.99333 27.2732 16 27.2732 16 27.2732C16 27.2732 26.0067 27.2732 28.5027 26.5999C29.1825 26.4148 29.8017 26.0542 30.2983 25.5544C30.7949 25.0545 31.1513 24.4329 31.332 23.7519C32 21.2399 32 15.9999 32 15.9999C32 15.9999 32 10.7599 31.3307 8.2479ZM12.7267 20.7572V11.2426L21.0907 15.9999L12.7267 20.7572Z" fill="url(#paint0_linear_12_166)"/>
<defs>
<linearGradient id="paint0_linear_12_166" x1="16" y1="4.72656" x2="16" y2="27.2732" gradientUnits="userSpaceOnUse">
<stop stop-color="#F5C20A"/>
<stop offset="1" stop-color="#F2A60C"/>
</linearGradient>
</defs>
</svg>

<svg width="32" height="32" fill="none" xmlns="http://www.w3.org/2000/svg"><path d="M31.33 8.248A4.021 4.021 0 0 0 28.502 5.4C26.007 4.727 16 4.727 16 4.727s-10.007 0-12.503.673A4.023 4.023 0 0 0 .67 8.248C0 10.76 0 16 0 16s0 5.24.67 7.752A4.02 4.02 0 0 0 3.498 26.6c2.494.673 12.501.673 12.501.673s10.007 0 12.503-.673a4.02 4.02 0 0 0 2.829-2.848C32 21.24 32 16 32 16s0-5.24-.67-7.752Zm-18.603 12.51v-9.515L21.09 16l-8.364 4.757Z" fill="url(#a)"/><defs><linearGradient id="a" x1="16" y1="4.727" x2="16" y2="27.273" gradientUnits="userSpaceOnUse"><stop stop-color="#F5C20A"/><stop offset="1" stop-color="#F2A60C"/></linearGradient></defs></svg>
